X: 20
T:VALSE ECOSSAISE
M:3/4
L:1/4
Q:85
C:Yves BELOTTEAU
R:Valse
K:G
|:B/2 A/2| G B d|e2 f|g2 f|e3/2 d/2 B/2 A/2| G B d|1e2 d|c2 B|A2:|2efg|f
af|g2 g/2 a/2|!
|:baf|g2 f|e2 d|B2 A|GBd|1e2 d|c2 B|A2 g/2 a/2:|2efg|faf|g2|
